src/icons/remove-page.svg

<?xml version="1.0" encoding="UTF-8"?>
<svg xmlns="http://www.w3.org/2000/svg" xmlns:xlink="http://www.w3.org/1999/xlink" width="32" height="32" viewBox="0 0 32 32" version="1.1">
<g id="surface1">
<path style=" stroke:none;fill-rule:nonzero;fill:rgb(0%,0%,0%);fill-opacity:1;" d="M 21.5 1.5 L 8 1.5 C 6.199219 1.5 4.75 2.949219 4.75 4.75 L 4.75 27.25 C 4.75 29.050781 6.199219 30.5 8 30.5 L 24 30.5 C 25.800781 30.5 27.25 29.050781 27.25 27.25 L 27.25 7.25 C 27.25 5.726562 26.648438 4.273438 25.574219 3.175781 C 24.5 2.074219 23.023438 1.5 21.5 1.5 Z M 20.023438 17.773438 C 19.898438 17.925781 19.699219 18 19.5 18 L 12.523438 18 C 12.148438 18 11.824219 17.75 11.75 17.398438 C 11.675781 16.925781 12.050781 16.5 12.5 16.5 L 19.449219 16.5 C 19.898438 16.5 20.300781 16.875 20.25 17.300781 C 20.226562 17.5 20.148438 17.648438 20.023438 17.773438 Z M 24 6.5 C 23.023438 6.5 22.25 5.726562 22.25 4.75 L 22.25 3.074219 C 23.101562 3.226562 23.875 3.625 24.5 4.25 C 25.125 4.875 25.523438 5.648438 25.675781 6.5 Z M 24 6.5 "/>
</g>
</svg>

<svg role="img" viewBox="0 0 32 32" xmlns="http://www.w3.org/2000/svg"><path d="M21.5 1.5H8c-1.8 0-3.25 1.45-3.25 3.25v22.5c0 1.8 1.45 3.25 3.25 3.25h16c1.8 0 3.25-1.45 3.25-3.25v-20a5.816 5.816 0 0 0-1.676-4.074C24.5 2.074 23.024 1.5 21.5 1.5m-1.477 16.273A.672.672 0 0 1 19.5 18h-6.977a.778.778 0 0 1-.773-.602c-.074-.472.3-.898.75-.898h6.95c.448 0 .85.375.8.8a.763.763 0 0 1-.227.473M24 6.5c-.977 0-1.75-.773-1.75-1.75V3.074A4.2 4.2 0 0 1 24.5 4.25a4.2 4.2 0 0 1 1.176 2.25Zm0 0" style="stroke:none;fill-rule:nonzero;fill:rgb(0%,0%,0%);fill-opacity:1"/></svg>
